X:920
T: Horse Hill
S: B.Breathnach:"Ceol Rince na hEireann" IV/69 (gan ainm)
Z: B.Black
L: 1/8
M: 12/8
Q: 360
R: jig
K: Am
G/E/|D3 EDE G2A BAG|A2c BAG AGE G2E|
D3 EDE G2A BAG|A2c BAG A3 A2 :|
B|d2B G2A B2c d^cd|e2A e2A e2A e3|
d2B c2A BAG AGE|A2c BAG A3 A3|
d2B G2A B2c d^cd|e2A A2B c2d ede|
d2B c2A BAG AGE|A2c BAG A3 A2 ||
